!!!COM:	Bach, Johann Sebastian
!!!CDT:	1685/02/21/-1750/07/28/
!!!OTL@@DE:	Herr Christ, der ein'ge Gotts Sohn
!!!SCT:	BWV 96/6
!!!PC#:	303
!!!AGN:	chorale
**kern	**kern	**kern	**kern
*ICvox	*ICvox	*ICvox	*ICvox
*Ibass	*Itenor	*Ialto	*Isoprn
*I"Bass	*I"Tenor	*I"Alto	*I"Soprano
*>[A,A,B]	*>[A,A,B]	*>[A,A,B]	*>[A,A,B]
*>norep[A,B]	*>norep[A,B]	*>norep[A,B]	*>norep[A,B]
*>A	*>A	*>A	*>A
*	*oclefC4	*oclefC3	*oclefC1
*clefF4	*clefGv2	*clefG2	*clefG2
*k[b-]	*k[b-]	*k[b-]	*k[b-]
*F:	*F:	*F:	*F:
*M4/4	*M4/4	*M4/4	*M4/4
*met(c)	*met(c)	*met(c)	*met(c)
*MM100	*MM100	*MM100	*MM100
4F	4A	4c	4f
=1	=1	=1	=1
4BB-	4B-	8dL	8fL
.	.	8eJ	8gJ
4F	4c	4f	4a
4C	8cL	4e	4g
.	8B-J	.	.
4D	4A	4d	4f
=2	=2	=2	=2
4GG	4B-	4d	2e
4AA	8AL	4c#	.
.	8GJ	.	.
4D;	4F;	4d;	4d;
4D	4d	4f#	4a
=3	=3	=3	=3
8GGL	4d	8gL	4b-
8AAJ	.	8fnXJ	.
4BB-	4cnX	4e	4g
8AAL	4c	4f	4a
8FFJ	.	.	.
4C	8cL	4e	4g
.	8B-J	.	.
=4	=4	=4	=4
2.FF;	2.A;	2.c;	2.f;
=:|!	=:|!	=:|!	=:|!
*>B	*>B	*>B	*>B
8FL	4A	4c	8fL
8EJ	.	.	8gJ
=5	=5	=5	=5
4D	4d	4f	4a
4C	4d	4f#	4a
8BB-L	4d	4g	4b-
8AAJ	.	.	.
4GG	4d	4g	4b-
=6	=6	=6	=6
4.AA	2c	4g	2cc
.	.	4fnX	.
8BB-	.	.	.
4C;	4c;	4e;	4g;
4E	4c	4g	4cc
=7	=7	=7	=7
4F	4c	4f	4a
4F#	4c	4e-	4a
4G	4B-	4d	4g
4G#	4B	4d	4fnX
=8	=8	=8	=8
4A	8EL	4d	2e
.	8FJ	.	.
4AA	4G	4c#	.
4BB-;	4F;	4d;	4d;
4AA	4cnX	4f#	4a
=9	=9	=9	=9
8GGL	4d	8gL	4b-
8AAJ	.	8fnXJ	.
4BB-	4c	4e	4g
8AAL	4c	4f	4a
8BB-J	.	.	.
4C	8cL	4e	4g
.	8B-J	.	.
=10	=10	=10	=10
2.FF;	2.A;	2.c;	2.f;
==	==	==	==
*-	*-	*-	*-
!!!YOR1: 371 vierstimmige Choralges&auml;nge von Johann Sebastian Bach, 
!!!YOR2: 4th ed. by Alfred D&ouml;rffel (Leipzig: Breitkopf und H&auml;rtel, 
!!!YOR2: c.1875). 178 pp. Plate "V.A.10".  reprint: J.S. Bach, 371 Four-Part 
!!!YOR4: Chorales (New York: Associated Music Publishers, Inc., c.1940).
!!!SMS: B&H, 4th ed, Alfred D&ouml;rffel, c.1875, plate V.A.10
!!!EED:  Craig Stuart Sapp
!!!EEV:  2009/05/22
